lib/flags/m/032.svg

<svg xmlns="http://www.w3.org/2000/svg" fill="none" viewBox="0 0 20 15"><mask id="032_svg__a" width="20" height="15" x="0" y="0" mask-type="alpha" maskUnits="userSpaceOnUse"><path fill="#fff" d="M0 0H20V15H0z"/></mask><g mask="url(#032_svg__a)"><path fill="#F7FCFF" fill-rule="evenodd" d="M0 0V15H20V0H0Z" clip-rule="evenodd"/><mask id="032_svg__b" width="20" height="15" x="0" y="0" mask-type="alpha" maskUnits="userSpaceOnUse"><path fill="#fff" fill-rule="evenodd" d="M0 0V15H20V0H0Z" clip-rule="evenodd"/></mask><g fill-rule="evenodd" clip-rule="evenodd" mask="url(#032_svg__b)"><path fill="#58A5FF" d="M0 0V5H20V0H0zM0 10V15H20V10H0z"/><path fill="#FFD018" stroke="#F19900" stroke-opacity=".98" stroke-width=".5" d="M10.3454 9.05448C10.3454 9.05448 9.70672 10.3787 9.14538 10.6502C9.38767 10.0428 9.47686 8.8036 9.47686 8.8036C9.47686 8.8036 8.01941 9.38144 7.50786 9.27612C8.12298 8.84629 8.97678 8.05015 8.97678 8.05015C8.97678 8.05015 7.09039 7.43344 7.13667 7.17097C7.98822 7.32372 9.15929 7.15721 9.15929 7.15721C9.15929 7.15721 7.83592 5.57018 7.97012 5.45217C8.17184 5.64824 9.75781 6.47669 9.75781 6.47669C9.75781 6.47669 9.87287 5.06469 10.2142 4.58862C10.2551 4.92467 10.7342 6.44615 10.7342 6.44615C10.7342 6.44615 11.6972 5.48254 12.2318 5.48254C11.997 5.77364 11.441 7.05236 11.441 7.05236C11.441 7.05236 12.8265 7.03055 13.3533 7.28987C12.7152 7.38062 11.5974 7.94182 11.5974 7.94182C11.5974 7.94182 13.0533 9.04621 12.9205 9.27612C12.1388 8.89374 11.2351 8.76567 11.2351 8.76567C11.2351 8.76567 11.4849 10.3026 11.283 10.6502C11.0861 10.1385 10.3454 9.05448 10.3454 9.05448Z"/><path fill="#FFD018" stroke="#F19900" stroke-opacity=".98" stroke-width=".5" d="M10.2617 8.33862C10.6068 8.33862 10.8867 8.0588 10.8867 7.71362C10.8867 7.36845 10.6068 7.08862 10.2617 7.08862C9.91648 7.08862 9.63666 7.36845 9.63666 7.71362C9.63666 8.0588 9.91648 8.33862 10.2617 8.33862Z"/></g></g></svg>

<svg xmlns="http://www.w3.org/2000/svg" fill="none" viewBox="0 0 20 15"><mask id="032_svg__a" width="20" height="15" x="0" y="0" maskUnits="userSpaceOnUse"><path fill="#fff" d="M0 0h20v15H0z"/></mask><g mask="url(#032_svg__a)"><path fill="#F7FCFF" fill-rule="evenodd" d="M0 0v15h20V0H0z" clip-rule="evenodd"/><mask id="032_svg__b" width="20" height="15" x="0" y="0" maskUnits="userSpaceOnUse"><path fill="#fff" fill-rule="evenodd" d="M0 0v15h20V0H0z" clip-rule="evenodd"/></mask><g fill-rule="evenodd" clip-rule="evenodd" mask="url(#032_svg__b)"><path fill="#58A5FF" d="M0 0v5h20V0H0zm0 10v5h20v-5H0z"/><path fill="#FFD018" stroke="#F19900" stroke-opacity=".98" stroke-width=".5" d="M10.345 9.054s-.638 1.325-1.2 1.596c.243-.607.332-1.846.332-1.846s-1.458.577-1.97.472c.616-.43 1.47-1.226 1.47-1.226s-1.887-.617-1.84-.879c.851.153 2.022-.014 2.022-.014S7.836 5.57 7.97 5.452c.202.196 1.788 1.025 1.788 1.025s.115-1.412.456-1.888c.041.336.52 1.857.52 1.857s.963-.963 1.498-.963c-.235.29-.791 1.57-.791 1.57s1.385-.022 1.912.237c-.638.09-1.756.652-1.756.652s1.456 1.104 1.324 1.334c-.782-.382-1.686-.51-1.686-.51s.25 1.537.048 1.884c-.197-.511-.938-1.596-.938-1.596z"/><path fill="#FFD018" stroke="#F19900" stroke-opacity=".98" stroke-width=".5" d="M10.262 8.339a.625.625 0 100-1.25.625.625 0 000 1.25z"/></g></g></svg>
